icons/folder-keyhole-line.svg

<svg viewBox="0 0 24 24" fill="currentColor" xmlns="http://www.w3.org/2000/svg"><path d="M10.4142 3L12.4142 5H21C21.5523 5 22 5.44772 22 6V20C22 20.5523 21.5523 21 21 21H3C2.44772 21 2 20.5523 2 20V4C2 3.44772 2.44772 3 3 3H10.4142ZM9.58579 5H4V19H20V7H11.5858L9.58579 5ZM12 9C13.1046 9 14 9.89543 14 11C14 11.7398 13.5983 12.3858 13.0011 12.7318L13 17H11L10.9999 12.7324C10.4022 12.3866 10 11.7403 10 11C10 9.89543 10.8954 9 12 9Z"/></svg>

<svg xmlns="http://www.w3.org/2000/svg" viewBox="0 0 24 24">
    <g>
        <path fill="none" d="M0 0h24v24H0z"/>
        <path fill-rule="nonzero" d="M10.414 3l2 2H21a1 1 0 0 1 1 1v14a1 1 0 0 1-1 1H3a1 1 0 0 1-1-1V4a1 1 0 0 1 1-1h7.414zm-.828 2H4v14h16V7h-8.414l-2-2zM12 9a2 2 0 0 1 1.001 3.732L13 17h-2v-4.268A2 2 0 0 1 12 9z"/>
    </g>
</svg>
